svgs/duotone/user-headset.svg

<svg xmlns="http://www.w3.org/2000/svg" viewBox="0 0 448 512"><!-- Font Awesome Pro 6.0.0-alpha2 by @fontawesome - https://fontawesome.com License - https://fontawesome.com/license (Commercial License) --><defs><style>.fa-secondary{opacity:.4}</style></defs><path d="M208 224.001H240C262.875 224.001 284 236.251 295.375 256.001H304C330.5 256.001 352 234.501 352 208.001V192.001C352 121.251 294.75 64.001 224 64.001S96 121.251 96 192.001C96 232.376 115.125 268.001 144.375 291.501C144.25 290.251 144 289.251 144 288.001C144 252.626 172.625 224.001 208 224.001Z" class="fa-secondary"/><path d="M48 224C56.875 224 64 216.875 64 208V192C64 103.75 135.75 32 224 32S384 103.75 384 192V208C384 252.125 348.125 288 304 288H272C272 270.375 257.625 256 240 256H208C190.375 256 176 270.375 176 288S190.375 320 208 320H304C365.875 319.875 415.875 269.875 416 208V192C416 86.125 329.875 0 224 0S32 86.125 32 192V208C32 216.875 39.125 224 48 224ZM314.664 352H133.336C59.699 352 0 411.695 0 485.332C0 500.059 11.941 512 26.664 512H421.336C436.059 512 448 500.059 448 485.332C448 411.695 388.307 352 314.664 352Z" class="fa-primary"/></svg>

<svg xmlns="http://www.w3.org/2000/svg" viewBox="0 0 448 512"><!--! Font Awesome Pro 6.3.0 by @fontawesome - https://fontawesome.com License - https://fontawesome.com/license (Commercial License) Copyright 2023 Fonticons, Inc. --><defs><style>.fa-secondary{opacity:.4}</style></defs><path class="fa-primary" d="M48 224C56.88 224 64 216.9 64 208V192c0-88.25 71.75-160 160-160s160 71.75 160 160v16C384 252.1 348.1 288 304 288h-32c0-17.62-14.38-32-32-32h-32c-17.62 0-32 14.38-32 32s14.38 32 32 32h96c61.88-.125 111.9-50.13 112-112V192c0-105.9-86.13-192-192-192S32 86.13 32 192v16C32 216.9 39.13 224 48 224zM314.7 352H133.3C59.7 352 0 411.7 0 485.3C0 500.1 11.94 512 26.66 512H421.3C436.1 512 448 500.1 448 485.3C448 411.7 388.3 352 314.7 352z"/><path class="fa-secondary" d="M208 224h32c22.88 0 43.98 12.2 55.36 31.95L304 256c26.5 0 48-21.5 48-47.1V192c0-70.75-57.25-128-128-128s-128 57.25-128 128c0 40.38 19.12 75.99 48.37 99.49C144.2 290.2 144 289.3 144 288C144 252.6 172.6 224 208 224z"/></svg>
